storage/app/icons/phosphoricons/fill/currency-btc-fill.svg

<svg xmlns="http://www.w3.org/2000/svg" fill="currentColor" viewBox="0 0 256 256"><path d="M176 152a16 16 0 0 1-16 16h-48v-32h48a16 16 0 0 1 16 16m64-24A104 104 0 1 1 136 24a104.11 104.11 0 0 1 104 104m-48 24a32 32 0 0 0-15.51-27.42A32 32 0 0 0 160 73v-9a8 8 0 0 0-16 0v8h-16v-8a8 8 0 0 0-16 0v8H96a8 8 0 0 0 0 16v80a8 8 0 0 0 0 16h16v8a8 8 0 0 0 16 0v-8h16v8a8 8 0 0 0 16 0v-8a32 32 0 0 0 32-32m-24-48a16 16 0 0 0-16-16h-40v32h40a16 16 0 0 0 16-16"/></svg>

<svg xmlns="http://www.w3.org/2000/svg" viewBox="0 0 256 256" fill="currentColor"><path d="M176,152a16,16,0,0,1-16,16H112V136h48A16,16,0,0,1,176,152Zm64-24A104,104,0,1,1,136,24,104.11,104.11,0,0,1,240,128Zm-48,24a32,32,0,0,0-15.51-27.42A32,32,0,0,0,160,73V64a8,8,0,0,0-16,0v8H128V64a8,8,0,0,0-16,0v8H96a8,8,0,0,0,0,16v80a8,8,0,0,0,0,16h16v8a8,8,0,0,0,16,0v-8h16v8a8,8,0,0,0,16,0v-8A32,32,0,0,0,192,152Zm-24-48a16,16,0,0,0-16-16H112v32h40A16,16,0,0,0,168,104Z"/></svg>
